Simply-Black-Circles/scalable/places/folder-documents.svg

<svg xmlns="http://www.w3.org/2000/svg" width="48" height="48" viewBox="0 0 12.7 12.7"><g fill="#1a1a1a"><path d="M6.344.07A6.29 6.29 0 0 0 .055 6.36a6.29 6.29 0 0 0 6.29 6.288 6.29 6.29 0 0 0 6.288-6.289A6.29 6.29 0 0 0 6.345.07zm-.018.936a5.407 5.407 0 0 1 5.407 5.407 5.407 5.407 0 0 1-5.407 5.407A5.407 5.407 0 0 1 .92 6.413a5.407 5.407 0 0 1 5.407-5.407z"/><path d="M3.619 3.304a.417.417 0 0 0-.418.418v.203c0 .231.186.418.418.418h5.466a.418.418 0 0 0 .419-.418v-.203a.418.418 0 0 0-.419-.418H3.62zm0 1.749a.417.417 0 0 0-.418.418v.202c0 .232.186.418.418.418h5.466a.418.418 0 0 0 .419-.418v-.202a.418.418 0 0 0-.419-.418H3.62zm0 1.749a.417.417 0 0 0-.418.418v.203c0 .231.186.418.418.418h5.466a.418.418 0 0 0 .419-.418V7.22a.418.418 0 0 0-.419-.418H3.62zm0 1.749a.417.417 0 0 0-.418.418v.202c0 .232.186.418.418.418h5.466a.418.418 0 0 0 .419-.418V8.97a.418.418 0 0 0-.419-.418H3.62z"/></g></svg>

<?xml version="1.0" encoding="UTF-8" standalone="no"?>
<svg
   xmlns:dc="http://purl.org/dc/elements/1.1/"
   xmlns:cc="http://creativecommons.org/ns#"
   xmlns:rdf="http://www.w3.org/1999/02/22-rdf-syntax-ns#"
   xmlns:svg="http://www.w3.org/2000/svg"
   xmlns="http://www.w3.org/2000/svg"
   xmlns:sodipodi="http://sodipodi.sourceforge.net/DTD/sodipodi-0.dtd"
   xmlns:inkscape="http://www.inkscape.org/namespaces/inkscape"
   width="48"
   height="48"
   viewBox="0 0 12.7 12.7"
   version="1.1"
   id="svg8"
   sodipodi:docname="folder-documents.svg"
   inkscape:version="0.92.4 (5da689c313, 2019-01-14)">
  <metadata
     id="metadata14">
    <rdf:RDF>
      <cc:Work
         rdf:about="">
        <dc:format>image/svg+xml</dc:format>
        <dc:type
           rdf:resource="http://purl.org/dc/dcmitype/StillImage" />
        <dc:title></dc:title>
      </cc:Work>
    </rdf:RDF>
  </metadata>
  <defs
     id="defs12" />
  <sodipodi:namedview
     pagecolor="#ffffff"
     bordercolor="#666666"
     borderopacity="1"
     objecttolerance="10"
     gridtolerance="10"
     guidetolerance="10"
     inkscape:pageopacity="0"
     inkscape:pageshadow="2"
     inkscape:window-width="1085"
     inkscape:window-height="480"
     id="namedview10"
     showgrid="false"
     inkscape:zoom="4.9166667"
     inkscape:cx="2.1355932"
     inkscape:cy="24"
     inkscape:window-x="0"
     inkscape:window-y="25"
     inkscape:window-maximized="0"
     inkscape:current-layer="svg8" />
  <g
     id="g6"
     style="fill:#1a1a1a">
    <path
       d="M 6.344,0.07 A 6.29,6.29 0 0 0 0.055,6.36 6.29,6.29 0 0 0 6.345,12.648 6.29,6.29 0 0 0 12.633,6.359 6.29,6.29 0 0 0 6.345,0.07 Z M 6.326,1.006 A 5.407,5.407 0 0 1 11.733,6.413 5.407,5.407 0 0 1 6.326,11.82 5.407,5.407 0 0 1 0.92,6.413 5.407,5.407 0 0 1 6.327,1.006 Z"
       id="path2"
       inkscape:connector-curvature="0" />
    <path
       d="M 3.619,3.304 A 0.417,0.417 0 0 0 3.201,3.722 v 0.203 c 0,0.231 0.186,0.418 0.418,0.418 H 9.085 A 0.418,0.418 0 0 0 9.504,3.925 V 3.722 A 0.418,0.418 0 0 0 9.085,3.304 H 3.62 Z m 0,1.749 A 0.417,0.417 0 0 0 3.201,5.471 v 0.202 c 0,0.232 0.186,0.418 0.418,0.418 H 9.085 A 0.418,0.418 0 0 0 9.504,5.673 V 5.471 A 0.418,0.418 0 0 0 9.085,5.053 H 3.62 Z m 0,1.749 A 0.417,0.417 0 0 0 3.201,7.22 v 0.203 c 0,0.231 0.186,0.418 0.418,0.418 H 9.085 A 0.418,0.418 0 0 0 9.504,7.423 V 7.22 A 0.418,0.418 0 0 0 9.085,6.802 H 3.62 Z m 0,1.749 A 0.417,0.417 0 0 0 3.201,8.969 v 0.202 c 0,0.232 0.186,0.418 0.418,0.418 H 9.085 A 0.418,0.418 0 0 0 9.504,9.171 V 8.97 A 0.418,0.418 0 0 0 9.085,8.552 H 3.62 Z"
       id="path4"
       inkscape:connector-curvature="0" />
  </g>
</svg>
